src/pos-icons/webrtc.svg

<svg height="24" viewBox="0 0 24 24" width="24" xmlns="http://www.w3.org/2000/svg"><path d="m12 2c2.44 0 4.5 1.75 4.91 4.07l.84-.07c2.75 0 5 2.24 5 5 0 1.89-1.05 3.53-2.59 4.38.38.71.59 1.51.59 2.37 0 2.75-2.25 5-5 5-1.49 0-2.83-.65-3.75-1.69-.92 1.04-2.26 1.69-3.75 1.69-2.75 0-5-2.25-5-5 0-.86.22-1.66.59-2.37-1.54-.85-2.59-2.49-2.59-4.38 0-2.76 2.25-5 5-5l.84.07c.41-2.32 2.47-4.07 4.91-4.07m-5.25 18.25 6.91-3.25h3.34c.55 0 1-.45 1-1v-7c0-.55-.45-1-1-1h-10c-.55 0-1 .45-1 1v7c0 .55.45 1 1 1h.77z"/></svg>

<?xml version="1.0" encoding="UTF-8"?><!DOCTYPE svg PUBLIC "-//W3C//DTD SVG 1.1//EN" "http://www.w3.org/Graphics/SVG/1.1/DTD/svg11.dtd"><svg xmlns="http://www.w3.org/2000/svg" xmlns:xlink="http://www.w3.org/1999/xlink" version="1.1" id="mdi-webrtc" width="24" height="24" viewBox="0 0 24 24"><path d="M12 2C14.44 2 16.5 3.75 16.91 6.07L17.75 6C20.5 6 22.75 8.24 22.75 11C22.75 12.89 21.7 14.53 20.16 15.38C20.54 16.09 20.75 16.89 20.75 17.75C20.75 20.5 18.5 22.75 15.75 22.75C14.26 22.75 12.92 22.1 12 21.06C11.08 22.1 9.74 22.75 8.25 22.75C5.5 22.75 3.25 20.5 3.25 17.75C3.25 16.89 3.47 16.09 3.84 15.38C2.3 14.53 1.25 12.89 1.25 11C1.25 8.24 3.5 6 6.25 6L7.09 6.07C7.5 3.75 9.56 2 12 2M6.75 20.25L13.66 17H17C17.55 17 18 16.55 18 16V9C18 8.45 17.55 8 17 8H7C6.45 8 6 8.45 6 9V16C6 16.55 6.45 17 7 17H7.77L6.75 20.25Z" /></svg>
